dealnox/img/sprite/icon-instagram.svg

<svg width="40" height="40" viewBox="0 0 40 40" fill="none" xmlns="http://www.w3.org/2000/svg">
<g clip-path="url(#clip0_666_619)">
<path d="M20 3.60156C25.3438 3.60156 25.9766 3.625 28.0781 3.71875C30.0313 3.80469 31.0859 4.13281 31.7891 4.40625C32.7188 4.76563 33.3906 5.20313 34.0859 5.89844C34.7891 6.60156 35.2188 7.26563 35.5781 8.19531C35.8516 8.89844 36.1797 9.96094 36.2656 11.9063C36.3594 14.0156 36.3828 14.6484 36.3828 19.9844C36.3828 25.3281 36.3594 25.9609 36.2656 28.0625C36.1797 30.0156 35.8516 31.0703 35.5781 31.7734C35.2188 32.7031 34.7813 33.375 34.0859 34.0703C33.3828 34.7734 32.7188 35.2031 31.7891 35.5625C31.0859 35.8359 30.0234 36.1641 28.0781 36.25C25.9688 36.3438 25.3359 36.3672 20 36.3672C14.6563 36.3672 14.0234 36.3438 11.9219 36.25C9.96875 36.1641 8.91406 35.8359 8.21094 35.5625C7.28125 35.2031 6.60938 34.7656 5.91406 34.0703C5.21094 33.3672 4.78125 32.7031 4.42188 31.7734C4.14844 31.0703 3.82031 30.0078 3.73438 28.0625C3.64063 25.9531 3.61719 25.3203 3.61719 19.9844C3.61719 14.6406 3.64063 14.0078 3.73438 11.9063C3.82031 9.95312 4.14844 8.89844 4.42188 8.19531C4.78125 7.26563 5.21875 6.59375 5.91406 5.89844C6.61719 5.19531 7.28125 4.76563 8.21094 4.40625C8.91406 4.13281 9.97656 3.80469 11.9219 3.71875C14.0234 3.625 14.6563 3.60156 20 3.60156ZM20 0C14.5703 0 13.8906 0.0234375 11.7578 0.117188C9.63281 0.210938 8.17188 0.554687 6.90625 1.04687C5.58594 1.5625 4.46875 2.24219 3.35938 3.35938C2.24219 4.46875 1.5625 5.58594 1.04688 6.89844C0.554688 8.17188 0.210938 9.625 0.117188 11.75C0.0234375 13.8906 0 14.5703 0 20C0 25.4297 0.0234375 26.1094 0.117188 28.2422C0.210938 30.3672 0.554688 31.8281 1.04688 33.0938C1.5625 34.4141 2.24219 35.5313 3.35938 36.6406C4.46875 37.75 5.58594 38.4375 6.89844 38.9453C8.17188 39.4375 9.625 39.7813 11.75 39.875C13.8828 39.9688 14.5625 39.9922 19.9922 39.9922C25.4219 39.9922 26.1016 39.9688 28.2344 39.875C30.3594 39.7813 31.8203 39.4375 33.0859 38.9453C34.3984 38.4375 35.5156 37.75 36.625 36.6406C37.7344 35.5313 38.4219 34.4141 38.9297 33.1016C39.4219 31.8281 39.7656 30.375 39.8594 28.25C39.9531 26.1172 39.9766 25.4375 39.9766 20.0078C39.9766 14.5781 39.9531 13.8984 39.8594 11.7656C39.7656 9.64063 39.4219 8.17969 38.9297 6.91406C38.4375 5.58594 37.7578 4.46875 36.6406 3.35938C35.5313 2.25 34.4141 1.5625 33.1016 1.05469C31.8281 0.5625 30.375 0.21875 28.25 0.125C26.1094 0.0234375 25.4297 0 20 0Z" fill="#968E8E"/>
<path d="M20 9.72656C14.3281 9.72656 9.72656 14.3281 9.72656 20C9.72656 25.6719 14.3281 30.2734 20 30.2734C25.6719 30.2734 30.2734 25.6719 30.2734 20C30.2734 14.3281 25.6719 9.72656 20 9.72656ZM20 26.6641C16.3203 26.6641 13.3359 23.6797 13.3359 20C13.3359 16.3203 16.3203 13.3359 20 13.3359C23.6797 13.3359 26.6641 16.3203 26.6641 20C26.6641 23.6797 23.6797 26.6641 20 26.6641Z" fill="#968E8E"/>
<path d="M33.0781 9.32032C33.0781 10.6484 32 11.7188 30.6797 11.7188C29.3516 11.7188 28.2812 10.6406 28.2812 9.32032C28.2812 7.99219 29.3594 6.92188 30.6797 6.92188C32 6.92188 33.0781 8 33.0781 9.32032Z" fill="#968E8E"/>
</g>
<defs>
<clipPath id="clip0_666_619">
<rect width="40" height="40" fill="white"/>
</clipPath>
</defs>
</svg>

<svg width="40" height="40" fill="none" xmlns="http://www.w3.org/2000/svg"><g clip-path="url(#clip0_666_619)" fill="#968E8E"><path d="M20 3.602c5.344 0 5.977.023 8.078.117 1.953.086 3.008.414 3.711.687.93.36 1.602.797 2.297 1.492.703.704 1.133 1.368 1.492 2.297.274.703.602 1.766.688 3.711.093 2.11.117 2.742.117 8.078 0 5.344-.024 5.977-.117 8.078-.086 1.954-.414 3.008-.688 3.711a6.183 6.183 0 0 1-1.492 2.297c-.703.703-1.367 1.133-2.297 1.492-.703.274-1.766.602-3.71.688-2.11.094-2.743.117-8.079.117-5.344 0-5.977-.023-8.078-.117-1.953-.086-3.008-.414-3.711-.688a6.186 6.186 0 0 1-2.297-1.492c-.703-.703-1.133-1.367-1.492-2.297-.274-.703-.602-1.765-.688-3.71-.093-2.11-.117-2.743-.117-8.079 0-5.343.024-5.976.117-8.078.086-1.953.414-3.008.688-3.71.36-.93.797-1.602 1.492-2.298.703-.703 1.367-1.132 2.297-1.492.703-.273 1.766-.601 3.71-.687 2.102-.094 2.735-.117 8.079-.117zM20 0c-5.43 0-6.11.023-8.242.117-2.125.094-3.586.438-4.852.93-1.32.516-2.437 1.195-3.547 2.312C2.242 4.47 1.563 5.586 1.047 6.9.555 8.171.21 9.624.117 11.75.023 13.89 0 14.57 0 20s.023 6.11.117 8.242c.094 2.125.438 3.586.93 4.852.516 1.32 1.195 2.437 2.312 3.547a9.776 9.776 0 0 0 3.54 2.304c1.273.492 2.726.836 4.851.93 2.133.094 2.813.117 8.242.117 5.43 0 6.11-.023 8.242-.117 2.125-.094 3.586-.438 4.852-.93a9.776 9.776 0 0 0 3.539-2.304 9.775 9.775 0 0 0 2.305-3.54c.492-1.273.836-2.726.93-4.851.093-2.133.117-2.813.117-8.242 0-5.43-.024-6.11-.118-8.242-.093-2.125-.437-3.586-.93-4.852a9.368 9.368 0 0 0-2.288-3.555 9.775 9.775 0 0 0-3.54-2.304C31.829.563 30.376.219 28.25.125 26.11.023 25.43 0 20 0z"/><path d="M20 9.727C14.328 9.727 9.727 14.328 9.727 20S14.328 30.273 20 30.273 30.273 25.672 30.273 20 25.672 9.727 20 9.727zm0 16.937a6.665 6.665 0 0 1 0-13.328 6.665 6.665 0 0 1 0 13.328zM33.078 9.32a2.399 2.399 0 1 1-2.398-2.398 2.404 2.404 0 0 1 2.398 2.398z"/></g><defs><clipPath id="clip0_666_619"><path fill="#fff" d="M0 0h40v40H0z"/></clipPath></defs></svg>
